X: 144
T:Jan Martindale's Trip To The Bathroom
% Nottingham Music Database
S:Mike Richardson, via Phil Rowe
M:6/8
K:D
"A"A3 |:"D"DFA "C"=CEG|"D"DFA "C"=CEG|"D"DFA "Bm"dcd|"Em"ecA "A"GFE|
"D"DFA "C"=CEG|"D"DFA "C"=CEG|"D"DFA "C"GE=C|"A"A,B,C "D"D3::
K:G
"G"G3 GAB|"C"c3 cde|"G"d3 B3|"D"A3 -A3|\
K:G
"G"G3 GAB|"C"c3 cde|"G"d2g "D"fga|"G"g3 :|<end>
<start>
